X:1
T:Title
%%score { ( 1 4 ) | ( 2 3 ) }
L:1/8
M:6/8
K:Eb
V:1 treble nm="Grand Piano"
V:4 treble 
V:2 bass 
V:3 bass 
V:1
 z3 z2[Q:1/4=100] G | G2 G GEF | G2 G G2 E | [DF]2 [DF] [DA]G[B,DF] |[M:5/8] E3- [EB]2 |[M:1/8] B | %6
[M:3/4] G2 GG EF | G2 G G2 E | [DF]2 [FA] [EG]2 [DF] |[M:5/8] E-E- E3 |[M:1/8] [GB] | %11
[M:3/4] [Ge]3 [EB]2 [Ec] | c2 z [B,DF]2 [B,DF] | [DF]G AB cB |[M:5/8] [GB]-[GB]- [GB]3 | %15
[M:1/8] [GB] |[M:3/4] [GB]2 [EG] [FA]2 [FA] | [DA]2 [DF] G2 G | F2 BB =AB | %19
[M:7/8] d2 c [DB]3 [EB] |[M:3/4] [Ge]3 [EB]2 [Ec] | [Ec]3 [CEF]2 [CEF] | %22
 [DF]G [B,FA] [B,EG]2 [A,DF] |[M:5/8] [G,E]-[G,E]- [G,E]3 |] %24
V:2
 z3 z2 [E,B,E] | z3 .[B,E]3 | [E,B,E]2 [E,B,E] [E,B,E]2 [E,G,] | [B,,B,]2 [B,,B,] z EB,, | %4
[M:5/8] z z2 G,2 |[M:1/8] [E,G,E] |[M:3/4] [E,B,E]2 [E,B,E]B,- [G,B,][B,D] | %7
 [E,B,E]2 [E,B,E] [E,B,E]2 [E,G,] | [B,,B,]2 [B,,B,] [B,,B,]2 [B,,B,] | %9
[M:5/8] [E,G,]-[E,G,]- [E,G,]3 |[M:1/8] [E,B,] |[M:3/4] [E,B,]3 [E,G,]2 [A,,A,] | %12
 z2[K:treble] B[K:bass] B,,2 B,, | z[K:treble] E [B,F]G A[B,DA] | %14
[M:5/8][K:bass] [E,E]-[E,E]- [E,E]3 |[M:1/8] [E,E] |[M:3/4] [E,E]2 [E,B,] [B,,B,]2 [B,,B,] | %17
 [B,,B,]2 [B,,B,] [E,B,E]2 [E,B,E] | [F,B,D]2 [F,DF][DF] [CE][F,B,D] | %19
[M:7/8] [F,=A,F]2 [F,A,E] [B,,B,]3 [E,G,] |[M:3/4] [E,B,]3 [E,G,]2 [A,,A,] | [A,,A,]3 A,,2 A,, | %22
 [B,,B,]2 z2 z2 |[M:5/8] E,-E,- E,3 |] %24
V:3
 x6 | [E,B,E]2 [E,B,E] E,-[E,G,][E,A,E] | x6 | z3 .[B,,B,]3 |[M:5/8] E,-E,- E,3 |[M:1/8] x | %6
[M:3/4] z2 z [E,E] z2 | x6 | x6 |[M:5/8] x5 |[M:1/8] x |[M:3/4] x6 | %12
 [B,,A,]4[K:treble][K:bass] z2 | B,2[K:treble] z .[B,D]3 |[M:5/8][K:bass] x5 |[M:1/8] x | %16
[M:3/4] x6 | x6 | z2 z .F,3 |[M:7/8] x7 |[M:3/4] x6 | x6 | z E B,, B,,2 B,, |[M:5/8] x5 |] %24
V:4
 x6 | x6 | x6 | x6 |[M:5/8] [B,G]3 z2 |[M:1/8] x |[M:3/4] x6 | x6 | x6 |[M:5/8] x5 |[M:1/8] x | %11
[M:3/4] x6 | D4 z2 | x6 |[M:5/8] x5 |[M:1/8] x |[M:3/4] x6 | x6 | x6 |[M:7/8] x7 |[M:3/4] x6 | x6 | %22
 x6 |[M:5/8] x5 |] %24

